!!!COM: Palestrina, Giovanni Perluigi da
!!!OPR: Tu es Petrus (1887)
!!!OTL: Credo
**kern	**kern	**kern	**kern	**kern	**kern
*Ibass	*Ibarit	*Itenor	*Icalto	*Icant	*Icant
!Bassus	!Baritone	!Tenor	!Altus	!Cantus 2	!Cantus 1
*clefF4	*clefF4	*clefGv2	*clefG2	*clefG2	*clefG2
*k[]	*k[]	*k[]	*k[]	*k[]	*k[]
*G:mix	*G:mix	*G:mix	*G:mix	*G:mix	*G:mix
*M4/2	*M4/2	*M4/2	*M4/2	*M4/2	*M4/2
=1	=1	=1	=1	=1	=1
1G	1B	1d	0r	0r	0r
2G	2B	[1d	.	.	.
4F#	4A	.	.	.	.
4E	4G	.	.	.	.
=2	=2	=2	=2	=2	=2
2F#	2A	2d]	0r	0r	0r
2G	2B	2d	.	.	.
2C	2c	2e	.	.	.
2C	2c	2e	.	.	.
=3	=3	=3	=3	=3	=3
0G	1B	1d	1r	1r	1r
.	4G	1d	1g	1dd	1b
.	4A	.	.	.	.
.	4B	.	.	.	.
.	4c	.	.	.	.
=4	=4	=4	=4	=4	=4
1D	1d	2r	2g	1.dd	2b
.	.	2d	4f#	.	4a
.	.	.	4e	.	4g
1r	1r	2d	2f#	.	2a
.	.	2G	2g	2dd	2b
=5	=5	=5	=5	=5	=5
0r	0r	1g	4c	1ee	1cc
.	.	.	4d	.	.
.	.	.	4e	.	.
.	.	.	4f	.	.
.	.	1G	1g	4dd	4b
.	.	.	.	4cc	4a
.	.	.	.	4dd	4b
.	.	.	.	4ee	4cc
=6	=6	=6	=6	=6	=6
0r	0r	0r	4d	2ff	2dd
.	.	.	4e	.	.
.	.	.	4f	2ff	4cc
.	.	.	4g	.	4b
.	.	.	2a	4ee	2cc
.	.	.	.	4dd	.
.	.	.	2A	4cc	[2a
.	.	.	.	4b	.
=7	=7	=7	=7	=7	=7
0r	0r	0r	1e	4cc	4a]
.	.	.	.	4b	4g
.	.	.	.	4b	1g
.	.	.	.	8a	.
.	.	.	.	8g	.
.	.	.	1d	1a	.
.	.	.	.	.	2f#
=8	=8	=8	=8	=8	=8
2r	2r	2r	2r	2b	2g
1G	1B	1d	1g	1dd	1b
2G	2B	2d	2g	2dd	2b
=9	=9	=9	=9	=9	=9
2G	2B	2d	2g	2b	1dd
2G	2B	2d	2g	2b	.
1C	1c	1g	1e	2.ee	2cc
.	.	.	.	.	2g
.	.	.	.	4dd	.
=10	=10	=10	=10	=10	=10
1F	1A	1c	1.f	2cc	2a
.	.	.	.	1ff	2a
1D	2A	1d	.	.	1a
.	[2d	.	2a	2ff	.
=11	=11	=11	=11	=11	=11
1A	2d]	1e	1a	1ee	2r
.	4c#	.	.	.	1ee
.	4B	.	.	.	.
2r	2c#	1A	[1a	2r	.
[2D	[2d	.	.	[2dd	[2ff#
=12	=12	=12	=12	=12	=12
2D]	2d]	1d	2a]	2dd]	2ff#]
2G	2B	.	2g	2dd	1gg
1C	1c	2e	1g	2cc	.
.	.	2c	.	2ee	2g
=13	=13	=13	=13	=13	=13
1G	1B	1.d	2g	1.dd	2.b
.	.	.	1g	.	.
.	.	.	.	.	4cc
2.D	2.A	.	.	.	1dd
.	.	2d	2f#	2a	.
4D	4A	.	.	.	.
=14	=14	=14	=14	=14	=14
1G	1G	0d	2g	2b	2r
.	.	.	1g	1dd	1b
1r	1r	.	.	.	.
.	.	.	2f	2dd	2a
=15	=15	=15	=15	=15	=15
0r	0r	0r	2.e	2.gg	2b
.	.	.	.	.	2b
.	.	.	4d	4ff	.
.	.	.	2c	2ee	2cc
.	.	.	2B	2dd	2dd
=16	=16	=16	=16	=16	=16
0r	0r	0r	2c	2cc	2ee
.	.	.	1g	1b	1dd
.	.	.	2a	2cc	2cc
=17	=17	=17	=17	=17	=17
1r	1r	2r	1g	1dd	1b
.	.	2.g	.	.	.
2.D	2r	.	1d	1dd	[1a
.	.	4g	.	.	.
.	[2d	2f	.	.	.
4D	.	.	.	.	.
=18	=18	=18	=18	=18	=18
1A	4d]	0e	2r	0r	1a]
.	4c	.	.	.	.
.	2c	.	2.a	.	.
1E	1B	.	.	.	1r
.	.	.	4g	.	.
.	.	.	2g	.	.
=19	=19	=19	=19	=19	=19
1F	2A	2c	1f	0r	0r
.	4A	1a	.	.	.
.	4B	.	.	.	.
1C	4c	.	1e	.	.
.	4d	.	.	.	.
.	[2e	2g	.	.	.
=20	=20	=20	=20	=20	=20
1D	4e]	2.f	2a	0r	0r
.	4d	.	.	.	.
.	1d	.	2a	.	.
.	.	8e	.	.	.
.	.	8d	.	.	.
2.A	.	2e	2a	.	.
.	2c#	2e	2a	.	.
4G	.	.	.	.	.
=21	=21	=21	=21	=21	=21
2F	1d	0d	2a	2r	2r
2G	.	.	1g	1dd	1b
1D	1r	.	.	.	.
.	.	.	2f	2dd	2a
=22	=22	=22	=22	=22	=22
0r	0r	0r	2g	2dd	2b
.	.	.	2e	2ee	2cc
.	.	.	1d	1ff	1dd
=23	=23	=23	=23	=23	=23
0r	2r	1r	1a	2ee	4cc
.	.	.	.	.	4b
.	1d	.	.	1ff	4a
.	.	.	.	.	4g
.	.	2r	2d	.	1a
.	2c	[2a	2e	2ee	.
=24	=24	=24	=24	=24	=24
0r	2d	2a]	2f	2dd	0r
.	2B	2g	2d	2dd	.
.	1A	2a	2e	1cc	.
.	.	2f	[2a	.	.
=25	=25	=25	=25	=25	=25
0r	2.c	2e	4a]	2.ee	0r
.	.	.	4g	.	.
.	.	1e	1g	.	.
.	4B	.	.	4dd	.
.	2A	.	.	2cc	.
.	2A	2c	2f#	2cc	.
=26	=26	=26	=26	=26	=26
2r	2G	2d	2g	1b	0r
2G	2G	2B	2d	.	.
2F#	2A	2A	2d	1r	.
2G	2B	2G	2d	.	.
=27	=27	=27	=27	=27	=27
1C	1c	1g	1e	1r	1r
1C	2c	1g	2e	2r	2r
.	2c	.	2g	2cc	2ee
=28	=28	=28	=28	=28	=28
0r	2B	0r	2g	2dd	2dd
.	2c	.	2g	2ee	2cc
.	2.F	.	2.a	2.ff	2.cc
.	4F	.	4a	4ff	4dd
=29	=29	=29	=29	=29	=29
0r	2c	2r	1g	2ee	2cc
.	1c	1g	.	1cc	1ee
.	.	.	1r	.	.
.	2B	2g	.	2dd	2dd
=30	=30	=30	=30	=30	=30
1r	1c	1g	0r	1ee	1cc
2r	1G	2.g	.	2dd	2b
2G	.	.	.	2dd	2b
.	.	8f	.	.	.
.	.	8e	.	.	.
=31	=31	=31	=31	=31	=31
2G	2r	2d	1r	2g	2b
2F	2c	2f	.	2a	2a
1G	2c	2e	2r	4b	[1g
.	.	.	.	4cc	.
.	2B	2d	2g	[2dd	.
=32	=32	=32	=32	=32	=32
1C	1c	1e	2e	4dd]	1g]
.	.	.	.	4cc	.
.	.	.	2c	1cc	.
1r	1G	1d	4d	.	1g
.	.	.	4G	.	.
.	.	.	2g	2b	.
=33	=33	=33	=33	=33	=33
2r	0r	2c	2e	1cc	2r
1F	.	1f	1a	.	1cc
.	.	.	.	1r	.
2F	.	2f	2a	.	2cc
=34	=34	=34	=34	=34	=34
2G	0r	2e	1g	1r	2cc
2G	.	2d	.	.	2b
2.A	.	[1c	2e	2r	2.a
.	.	.	[2a	[2cc	.
4G	.	.	.	.	4b
=35	=35	=35	=35	=35	=35
4A	0r	1c]	2a]	2cc]	4cc
4B	.	.	.	.	4dd
1c	.	.	2g	2cc	4ee
.	.	.	.	.	4ff
.	.	1G	2r	2dd	1gg
2B	.	.	[2g	2dd	.
=36	=36	=36	=36	=36	=36
1c	2r	0r	2g]	4ee	2gg
.	.	.	.	4dd	.
.	1c	.	2g	4cc	1ee
.	.	.	.	4b	.
1r	.	.	2cc	4a	.
.	.	.	.	4g	.
.	2c	.	2cc	[2g	2ee
=37	=37	=37	=37	=37	=37
0r	2d	0r	2b	2g]	2dd
.	2d	.	2.a	2f#	2dd
.	2e	.	.	1g	2b
.	.	.	4g	.	.
.	2e	.	[2g	.	2cc
=38	=38	=38	=38	=38	=38
1r	1d	2r	2g]	1a	1dd
.	.	1d	2f#	.	.
2r	[1G	.	[1g	2b	1ee
[2G	.	2B	.	[2b	.
=39	=39	=39	=39	=39	=39
2G]	1G]	2d	1g]	2b]	0r
2E	.	2e	.	2g	.
2F	1r	1d	2r	2a	.
2G	.	.	[2g	2b	.
=40	=40	=40	=40	=40	=40
1C	2r	2.c	2g]	2.cc	2r
.	1c	.	2e	.	1ee
.	.	4d	.	4dd	.
1r	.	2e	2g	1ee	.
.	2A	2e	2a	.	2cc
=41	=41	=41	=41	=41	=41
1r	2B	2d	1g	1gg	2dd
.	1c	4c	.	.	2ee
.	.	4B	.	.	.
1F	.	2.A	1a	1ff	1cc
.	2F	.	.	.	.
.	.	4B	.	.	.
=42	=42	=42	=42	=42	=42
1F	2A	2.c	1a	0cc	2ff
.	2A	.	.	.	2ff
.	.	4d	.	.	.
1C	[1c	[1e	2g	.	1ee
.	.	.	2c	.	.
=43	=43	=43	=43	=43	=43
1C	1c]	1e]	1g	2r	2r
.	.	.	.	2cc	2ee
1G	1r	1r	[1g	1b	1dd
=44	=44	=44	=44	=44	=44
2G	0r	0r	2g]	2b	2dd
2G	.	.	2g	2b	2dd
2A	.	.	2e	2a	2cc
2A	.	.	2f#	2a	2cc
=45	=45	=45	=45	=45	=45
1G	2r	2r	1g	2dd	2b
.	2G	2g	.	2dd	2b
1r	1c	1g	1r	1ee	1cc
=46	=46	=46	=46	=46	=46
0r	2c	2g	0r	2ee	2cc
.	2c	2a	.	2ee	2cc
.	2c	2g	.	2cc	2ee
.	2c	2g	.	2cc	2ee
=47	=47	=47	=47	=47	=47
0r	1d	1f	0r	2a	1ff
.	.	.	.	2b	.
.	1c	1g	.	1cc	2ee
.	.	.	.	.	[2ee
=48	=48	=48	=48	=48	=48
1c	1r	1e	1g	2r	2ee]
.	.	.	.	1ee	1cc
1A	1c	1e	1a	.	.
.	.	.	.	[2cc	[2a
=49	=49	=49	=49	=49	=49
1F	1A	2f	1cc	2cc]	2a]
.	.	2c	.	1a	2f
1D	2A	[1d	1f	.	2.ff
.	2A	.	.	2f	.
.	.	.	.	.	4ee
=50	=50	=50	=50	=50	=50
1D	1F	1d]	1a	1ff	1dd
1AA	1A	1e	1a	1ee	1cc#
=51	=51	=51	=51	=51	=51
0r	1r	1r	1r	1r	0r
.	1A	1c#	1e	1a	.
=52	=52	=52	=52	=52	=52
0r	1G	1d	1g	1b	0r
.	1F	2f	1a	1cc	.
.	.	[2f	.	.	.
=53	=53	=53	=53	=53	=53
0r	1B-	4f]	1f	1dd	0r
.	.	4e	.	.	.
.	.	4d	.	.	.
.	.	4c	.	.	.
.	1B-	2d	1g	1dd	.
.	.	2d	.	.	.
=54	=54	=54	=54	=54	=54
2r	1A	2e	2a	1cc	2r
2A	.	2e	2a	.	2a
1G	1r	1g	1d	1r	1b
=55	=55	=55	=55	=55	=55
2F	0r	2a	2f	0r	2cc
2F	.	2a	2f	.	2cc
1B-	.	2f	1d	.	1dd
.	.	2g	.	.	.
=56	=56	=56	=56	=56	=56
1A	2r	1a	2e	2r	2cc#
.	1A	.	1a	1cc#	1ee
1r	.	2r	.	.	.
.	2A	[2A	2a	2cc#	2ee
=57	=57	=57	=57	=57	=57
1.D	0d	2A]	1a	1dd	1ff#
.	.	2A	.	.	.
.	.	[1d	1a	1dd	1ff#
2D	.	.	.	.	.
=58	=58	=58	=58	=58	=58
2G	1B	2d]	1.g	2dd	1.gg
2G	.	2d	.	2dd	.
2C	2c	[1e	.	4cc	.
.	.	.	.	4dd	.
2C	2c	.	2e	4ee	2gg
.	.	.	.	4ff	.
=59	=59	=59	=59	=59	=59
1C	1c	2e]	4c	1gg	1ee
.	.	.	4d	.	.
.	.	2e	4e	.	.
.	.	.	4f	.	.
1C	1c	2e	2g	1cc	1ee
.	.	2g	[2e	.	.
=60	=60	=60	=60	=60	=60
1E	2.G	2g	2e]	1b	1ee
.	.	2G	2g	.	.
.	4A	.	.	.	.
1G	2B	4G	2g	1b	1dd
.	.	4A	.	.	.
.	2G	4B	[2g	.	.
.	.	4c	.	.	.
=61	=61	=61	=61	=61	=61
1D	1A	1.d	2g]	1a	1dd
.	.	.	4f#	.	.
.	.	.	4e	.	.
1D	1A	.	2f#	1dd	1a
.	.	2d	2f#	.	.
=62	=62	=62	=62	=62	=62
0G	0G	0d	0g	0dd	0b
*	*	*	*	*-	*-
!! Crucifixus
*Itenor	*Icalto	*Icant	*Icant
!Tenor	!Altus	!Cantus 2	!Cantus 1
*clefGv2	*clefG2	*clefG2	*clefG2
*k[]	*k[]	*k[]	*k[]
*G:mix	*G:mix	*G:mix	*G:mix
*M4/2	*M4/2	*M4/2	*M4/2
=63	=63	=63	=63
0G	0g	0dd	0b
=64	=64	=64	=64
1d	1f#	1dd	1a
1c	1g	1ee	1cc
=65	=65	=65	=65
2G	1g	2dd	2b
1c	.	1g	1ee
.	2c	.	.
2B	2d	2g	2dd
=66	=66	=66	=66
2A	1e	2a	2cc
2G	.	2b	2b
4F	2r	1cc	4a
4G	.	.	4b
4A	[2a	.	4cc
4B	.	.	4dd
=67	=67	=67	=67
4c	2a]	1cc	1ee
4d	.	.	.
4e	2g	.	.
4c	.	.	.
2d	2f	2a	2dd
2e	2e	2g	2cc
=68	=68	=68	=68
2f#	1d	2a	[0dd
1g	.	2b	.
.	1d	1a	.
2f#	.	.	.
=69	=69	=69	=69
2g	2r	1b	1dd]
2G	2g	.	.
2.c	2.e	1r	1r
4A	4f	.	.
=70	=70	=70	=70
2B	2g	0r	0r
2c	2e	.	.
4d	2.f	.	.
4c	.	.	.
4d	.	.	.
4e	4g	.	.
=71	=71	=71	=71
2f	4a	0r	1cc
.	4b	.	.
4e	1cc	.	.
8d	.	.	.
8c	.	.	.
1d	.	.	2.ff
.	2b	.	.
.	.	.	4dd
=72	=72	=72	=72
1c	1cc	2r	1.ee
.	.	2g	.
1r	1a	2.cc	.
.	.	.	2cc
.	.	4a	.
=73	=73	=73	=73
0r	2g	2b	2dd
.	2e	2cc	2ee
.	[1d	4dd	4ff
.	.	4cc	4ee
.	.	4dd	4dd
.	.	4ee	4cc
=74	=74	=74	=74
0r	2d]	2ff	2dd
.	2a	4ee	1cc
.	.	8dd	.
.	.	8cc	.
.	1g	1dd	.
.	.	.	2b
=75	=75	=75	=75
1f	2a	2cc	2cc
.	1a	1ff	1cc
1c	.	.	.
.	2g	[2ee	2cc
=76	=76	=76	=76
1d	1f	2ee]	1a
.	.	1dd	.
1A	2e	.	1a
.	[2a	2cc	.
=77	=77	=77	=77
2.B	4a]	1b	1dd
.	4g	.	.
.	1g	.	.
4c	.	.	.
2d	.	1a	1dd
2d	2f#	.	.
=78	=78	=78	=78
0G	1g	1b	1dd
.	2r	2r	2r
.	2g	2dd	2b
=79	=79	=79	=79
0r	2.c	2.ee	2.cc
.	4c	4ee	4cc
.	2c	2ee	2cc
.	2c	2ee	2cc
=80	=80	=80	=80
2r	2g	2.dd	2b
2d	2f#	.	2a
.	.	4cc	.
2.e	2g	2b	1g
.	4c	[2cc	.
4e	4d	.	.
=81	=81	=81	=81
2e	4e	4cc]	1g
.	4f	4b	.
2e	1g	4b	.
.	.	8a	.
.	.	8g	.
2.d	.	1a	1dd
.	2f	.	.
4c	.	.	.
=82	=82	=82	=82
2B	2d	0g	1r
2.c	2.e	.	.
.	.	.	2r
4B	4d	.	.
4B	2d	.	[2gg
8A	.	.	.
8G	.	.	.
=83	=83	=83	=83
1A	1c	2r	2gg]
.	.	1cc	2ff
1G	1g	.	2ee
.	.	2b	2dd
=84	=84	=84	=84
0r	2r	1a	4cc
.	.	.	4dd
.	1cc	.	4ee
.	.	.	4cc
.	.	1g	2.dd
.	2b	.	.
.	.	.	4ee
=85	=85	=85	=85
1r	2a	2cc	4ff
.	.	.	4ee
.	2g	2b	1ee
2r	1f	2.a	.
[2a	.	.	2dd
.	.	4b	.
=86	=86	=86	=86
2a]	1e	4cc	2ee
.	.	8b	.
.	.	8a	.
2g	.	4b	2ee
.	.	4cc	.
2f	2a	4dd	2ff
.	.	4cc	.
2e	2g	[2cc	[2gg
=87	=87	=87	=87
1d	2a	2cc]	4gg]
.	.	.	4ff
.	2f	2b	1ff
1c	1g	[1cc	.
.	.	.	2ee
=88	=88	=88	=88
1f	1a	1cc]	2ff
.	.	.	1cc
1r	1f	1a	.
.	.	.	2dd
=89	=89	=89	=89
0r	2g	2b	2.ee
.	2.a	2.cc	.
.	.	.	4ee
.	.	.	2ff
.	4a	4cc	.
.	2b	2dd	[2gg
=90	=90	=90	=90
1r	2.cc	1ee	4gg]
.	.	.	4ff
.	.	.	4ee
.	4b	.	4dd
1F	4a	4ff	4cc
.	4g	4ee	4b
.	4f	4dd	2a
.	4e	4cc	.
=91	=91	=91	=91
2G	2d	2b	2g
2.A	2c	1ee	1cc
.	1f	.	.
4A	.	.	.
2B	.	2dd	4b
.	.	.	4a
=92	=92	=92	=92
4c	1e	[0ee	2.g
4d	.	.	.
4e	.	.	.
4f	.	.	4a
4g	1r	.	2b
4e	.	.	.
[2a	.	.	2cc
=93	=93	=93	=93
2a]	1e	1ee]	1b
2g#	.	.	.
1a	2f	2r	1r
.	2f	2a	.
=94	=94	=94	=94
0r	2.e	2b	2r
.	.	2cc	2ee
.	4e	.	.
.	2d	2.dd	2ff
.	4f	.	2ff
.	4g	4dd	.
=95	=95	=95	=95
0r	4a	1cc	2.ee
.	4b	.	.
.	1cc	.	.
.	.	.	4ee
.	.	1g	2dd
.	4b	.	4gg
.	4a	.	4ff
=96	=96	=96	=96
1e	2b	1g	4ee
.	.	.	4dd
.	2.cc	.	4cc
.	.	.	4b
2f	.	1r	4a
.	4b	.	4b
2f	[2a	.	4cc
.	.	.	4a
=97	=97	=97	=97
2.e	2a]	1ee	2.b
.	2g	.	.
4e	.	.	4cc
4d	1a	2ff	4dd
4e	.	.	4cc
4f	.	2ff	[2dd
4g	.	.	.
=98	=98	=98	=98
2.a	0r	2.ee	4dd]
.	.	.	4cc
.	.	.	1cc
4g	.	4ee	.
2f	.	1dd	.
2g	.	.	2b
=99	=99	=99	=99
2c	2r	1ee	2cc
2c	2e	.	2g
2.A	2.a	1ee	2.cc
4A	4a	.	4cc
=100	=100	=100	=100
2A	2a	2r	2cc
2A	2cc	2ee	2a
2G#	2b	2.ee	2b
2A	2a	.	2cc
.	.	4ee	.
=101	=101	=101	=101
1e	1g#	2ee	1b
.	.	2ee	.
2r	2r	2dd	2r
2A	2a	2cc	2ee
=102	=102	=102	=102
2.e	2.g#	1b	2.ee
4e	4g#	.	4ee
2e	2g#	2r	2ee
[2A	[2a	2a	[2cc
=103	=103	=103	=103
2A]	2a]	2.ee	2cc]
2G#	2b	.	2b
.	.	4ee	.
1A	1cc	2ee	2a
.	.	[2a	2ee
=104	=104	=104	=104
1e	1b	2a]	2.ee
.	.	2g#	.
.	.	.	4dd
1f	2r	1a	4cc
.	.	.	4b
.	[2a	.	[2cc
=105	=105	=105	=105
1e	4a]	1ee	2cc]
.	4g	.	.
.	2g	.	2b
1d	2.a	1ff	1dd
.	4b	.	.
=106	=106	=106	=106
1.c	2cc	2ee	1.g
.	2c	2ee	.
.	2.e	2.cc	.
2c	.	.	2g
.	4e	4cc	.
=107	=107	=107	=107
1G	1d	1b	1g
1r	1r	1r	1r
=108	=108	=108	=108
2r	2r	2r	2r
1G	1g	1dd	1b
2G	2g	2dd	2b
=109	=109	=109	=109
1c	1g	1ee	1cc
2G	2g	1dd	2b
2g	2g	.	2b
=110	=110	=110	=110
2f	2a	1r	2cc
2d	2b	.	2dd
1c	4cc	2r	4ee
.	4b	.	4dd
.	4a	2ee	4cc
.	4g	.	4b
=111	=111	=111	=111
2d	2f#	2dd	2a
2e	1g	2cc	2g
1d	.	1dd	1a
.	2f#	.	.
=112	=112	=112	=112
2r	2g	2dd	2b
1c	1g	1ee	1cc
2c	2g	2ee	2cc
=113	=113	=113	=113
1f	1a	1ff	1cc
1c	1g	1ee	2cc
.	.	.	[2g
=114	=114	=114	=114
1c	1e	0r	2g]
.	.	.	2a
2d	2f	.	2b
2e	2g	.	[2cc
=115	=115	=115	=115
1.f	1a	1cc	4cc]
.	.	.	4b
.	.	.	4a
.	.	.	4g
.	2d	2dd	2a
2e	2g	2ee	4b
.	.	.	4cc
=116	=116	=116	=116
1d	2a	1ff	1dd
.	2b	.	.
1c	4cc	1ee	2g
.	4b	.	.
.	4a	.	2cc
.	4g	.	.
=117	=117	=117	=117
0d	2f#	[0dd	2a
.	1g	.	2b
.	.	.	1a
.	2f#	.	.
=118	=118	=118	=118
0G	0g	0dd]	0b
*-	*-	*-	*-
!! Et in Spiritum
**kern	**kern	**kern	**kern	**kern	**kern
*Ibass	*Ibarit	*Itenor	*Icalto	*Icant	*Icant
!Bassus	!Baritone	!Tenor	!Altus	!Cantus 2	!Cantus 1
*clefF4	*clefF4	*clefGv2	*clefG2	*clefG2	*clefG2
*k[]	*k[]	*k[]	*k[]	*k[]	*k[]
*G:mix	*G:mix	*G:mix	*G:mix	*G:mix	*G:mix
*M4/2	*M4/2	*M4/2	*M4/2	*M4/2	*M4/2
=119	=119	=119	=119	=119	=119
0G	0r	0d	0g	0r	0b
=120	=120	=120	=120	=120	=120
1G	0r	1g	1b	0r	1dd
2.c	.	2.g	2.cc	.	2.ee
4c	.	4g	4cc	.	4ee
=121	=121	=121	=121	=121	=121
2G	0r	2g	2b	0r	2dd
1A	.	1e	1a	.	1cc
2E	.	2e	2g	.	2b
=122	=122	=122	=122	=122	=122
2F	1r	2c	2f	1r	2a
2A	.	2c	2e	.	2cc
1G	2r	2d	1g	2r	2b
.	[2G	[2g	.	[2dd	[2b
=123	=123	=123	=123	=123	=123
0r	2G]	2g]	2r	2dd]	2b]
.	2G	2g	1g	2dd	2b
.	2c	2e	.	1ee	2.cc
.	2c	[2a	2e	.	.
.	.	.	.	.	4b
=124	=124	=124	=124	=124	=124
1D	0d	2a]	2f#	2dd	2a
.	.	2.g	2g	2.dd	2b
1D	.	.	1a	.	4a
.	.	8f#	.	8cc	8b
.	.	8e	.	8b	8cc
.	.	2f#	.	2a	[2dd
=125	=125	=125	=125	=125	=125
2G	1G	2.g	1g	4b	4dd]
.	.	.	.	4cc	4cc
2G	.	.	.	1dd	2b
.	.	4f	.	.	.
1A	1r	1e	1r	.	1a
.	.	.	.	2cc#	.
=126	=126	=126	=126	=126	=126
2D	2r	2f#	2r	0dd	2r
1G	1B	1g	1d	.	1b
2G	2B	2g	2d	.	2dd
=127	=127	=127	=127	=127	=127
1C	1c	1e	1g	0r	4cc
.	.	.	.	.	8b
.	.	.	.	.	8a
.	.	.	.	.	4g
.	.	.	.	.	4a
1G	1B	2d	1g	.	1b
.	.	[2e	.	.	.
=128	=128	=128	=128	=128	=128
2.A	2.c	4e]	0r	0r	1a
.	.	4c	.	.	.
.	.	2c	.	.	.
4F#	4A	.	.	.	.
2F#	2A	1d	.	.	1r
[2G	2B	.	.	.	.
=129	=129	=129	=129	=129	=129
2G]	2d	2B	1r	0r	0r
2E	1c	2.e	.	.	.
1F	.	.	2r	.	.
.	.	8d	.	.	.
.	.	8c	.	.	.
.	4B	2d	[2a	.	.
.	4A	.	.	.	.
=130	=130	=130	=130	=130	=130
1E	1B	0e	2a]	2r	2r
.	.	.	2g#	2b	1ee
1r	1A	.	1a	1cc	.
.	.	.	.	.	2ee
=131	=131	=131	=131	=131	=131
0r	0r	0r	4d	1dd	1ff
.	.	.	4e	.	.
.	.	.	4f	.	.
.	.	.	4g	.	.
.	.	.	2a	2cc	2ee
.	.	.	2e	2cc	2ee
=132	=132	=132	=132	=132	=132
0r	0r	0r	2g	2b	2dd
.	.	.	2a	2cc	2cc
.	.	.	1g	1dd	1b
=133	=133	=133	=133	=133	=133
1.C	1.c	1.e	1.g	1.ee	1.cc
2C	2c	2e	2g	2ee	2cc
=134	=134	=134	=134	=134	=134
1C	1c	2.e	1.g	1ee	1cc
.	.	4f	.	.	.
1G	1d	2g	.	1dd	1b
.	.	2G	2g	.	.
=135	=135	=135	=135	=135	=135
0C	1c	2.g	2.e	2.ee	2.cc
.	.	4f	4f	4dd	4dd
.	2.G	4e	1g	1cc	1ee
.	.	4d	.	.	.
.	.	2c	.	.	.
.	4A	.	.	.	.
=136	=136	=136	=136	=136	=136
1G	1B	1d	1g	1b	1dd
1G	2r	1g	2r	1b	1dd
.	[2G	.	2g	.	.
=137	=137	=137	=137	=137	=137
1.C	2G]	1.e	1.g	1.cc	1.ee
.	1c	.	.	.	.
2C	2c	2e	2g	2cc	2ee
=138	=138	=138	=138	=138	=138
1C	1c	2.e	1g	1cc	1ee
.	.	4f	.	.	.
1G	1d	2g	1g	1b	1dd
.	.	2G	.	.	.
=139	=139	=139	=139	=139	=139
0C	1c	2.g	2.e	2.cc	2.ee
.	.	4f	4f	4dd	4dd
.	2.G	4e	1g	1ee	1cc
.	.	4d	.	.	.
.	.	2c	.	.	.
.	4A	.	.	.	.
=140	=140	=140	=140	=140	=140
0G	1B	1d	1g	1dd	1b
.	2.G	2.g	1r	2.b	2.dd
.	4G	4g	.	4b	4dd
=141	=141	=141	=141	=141	=141
1r	2G	2g	1r	2b	2dd
.	2G	2g	.	2b	2dd
2.C	1c	[1e	2.g	[1cc	1ee
4C	.	.	4g	.	.
=142	=142	=142	=142	=142	=142
2C	2c	1e]	2g	1cc]	1gg
2C	2c	.	2g	.	.
1F	[1A	1c	2a	1cc	2ff
.	.	.	[2a	.	[2ff
=143	=143	=143	=143	=143	=143
2D	0A]	1f	2a]	1dd	4ff]
.	.	.	.	.	4ee
2D	.	.	2a	.	1dd
1A	.	1e	1a	2ee	.
.	.	.	.	2a	2cc#
=144	=144	=144	=144	=144	=144
1D	1A	0d	1f#	1a	1dd
1r	1G	.	2r	2r	1b
.	.	.	2g	2dd	.
=145	=145	=145	=145	=145	=145
0r	2c	0r	2g	2ee	2cc
.	2B	.	2g	2dd	2dd
.	1c	.	1g	1cc	1ee
=146	=146	=146	=146	=146	=146
0r	2G	2r	1g	2b	2dd
.	2G	2d	.	2dd	2b
.	2G	2g	2r	2dd	2b
.	2d	2f#	[2d	2dd	2a
=147	=147	=147	=147	=147	=147
0r	1G	1g	2d]	0dd	2.b
.	.	.	1g	.	.
.	.	.	.	.	8a
.	.	.	.	.	8g
.	1r	1d	.	.	1a
.	.	.	2f#	.	.
=148	=148	=148	=148	=148	=148
1G	0r	2r	1g	1b	1dd
.	.	2g	.	.	.
2c	.	2g	2r	2cc	2ee
2B	.	2g	2g	2dd	2dd
=149	=149	=149	=149	=149	=149
2.c	1r	2.g	2e	2.ee	2cc
.	.	.	2c	.	2cc
4c	.	4g	.	4ee	.
1G	2r	[1g	2.d	2dd	4b
.	.	.	.	.	4cc
.	2G	.	.	2gg	4dd
.	.	.	4d	.	4b
=150	=150	=150	=150	=150	=150
0r	2c	2g]	2c	2ee	2cc
.	2B	2g	2G	2dd	1dd
.	1c	2.e	[1g	2.ee	.
.	.	.	.	.	[2cc
.	.	8d	.	4ff	.
.	.	8c	.	.	.
=151	=151	=151	=151	=151	=151
2r	1G	2d	2g]	1gg	2cc]
2G	.	2d	2g	.	2b
[1c	1r	2e	1g	2r	1cc
.	.	2e	.	2g	.
=152	=152	=152	=152	=152	=152
2c]	0r	2e	2r	2a	0r
2B	.	2d	2d	2b	.
1A	.	2c	2e	1cc	.
.	.	2c	2f#	.	.
=153	=153	=153	=153	=153	=153
1G	0r	2d	1g	1b	1r
.	.	2e	.	.	.
[1F	.	2.f	1c	[1a	2r
.	.	.	.	.	2cc
.	.	4e	.	.	.
=154	=154	=154	=154	=154	=154
2F]	0r	2d	2f	2a]	2dd
2E	.	1c	2g	2cc	2ee
1D	.	.	4f	1dd	1ff
.	.	.	4e	.	.
.	.	2B	2d	.	.
=155	=155	=155	=155	=155	=155
0C	2r	1c	2e	2g	2ee
.	1c	.	1g	1cc	1ee
.	.	1r	.	.	.
.	2c	.	2g	2cc	2ee
=156	=156	=156	=156	=156	=156
0r	2A	0r	2a	2cc	2ee
.	2F	.	2a	2cc	2ff
.	1c	.	1g	1cc	1ee
=157	=157	=157	=157	=157	=157
0r	1G	2r	0g	4b	2dd
.	.	.	.	4cc	.
.	.	2d	.	4dd	4gg
.	.	.	.	4b	4ff
.	1c	4e	.	4cc	4ee
.	.	4f	.	4dd	4dd
.	.	4g	.	2ee	4cc
.	.	4e	.	.	4b
=158	=158	=158	=158	=158	=158
0r	1d	4f	0r	1dd	2a
.	.	4g	.	.	.
.	.	2.a	.	.	1dd
.	1e	.	.	1g	.
.	.	4g	.	.	.
.	.	[2g	.	.	2cc#
=159	=159	=159	=159	=159	=159
1D	1d	2g]	0r	1a	1dd
.	.	2f#	.	.	.
1E	2r	1g	.	2g	2r
.	2G	.	.	[2b	[2gg
=160	=160	=160	=160	=160	=160
1G	1B	2r	1d	2b]	2gg]
.	.	1g	.	1dd	2gg
1C	1c	.	1e	.	[1gg
.	.	2e	.	[2cc	.
=161	=161	=161	=161	=161	=161
1r	1G	1d	1g	4cc]	1gg]
.	.	.	.	8b	.
.	.	.	.	8a	.
.	.	.	.	2b	.
2r	1r	2c	1g	2cc	1ee
[2c	.	2g	.	[2ee	.
=162	=162	=162	=162	=162	=162
2c]	0r	2g	2.cc	2ee]	0r
2c	.	1a	.	2ee	.
.	.	.	4cc	.	.
2A	.	.	2cc	2ee	.
2F	.	2a	2cc	2ff	.
=163	=163	=163	=163	=163	=163
1c	0r	1g	1cc	1ee	2r
.	.	.	.	.	2cc
1G	.	1g	1b	2dd	1dd
.	.	.	.	4gg	.
.	.	.	.	4ff	.
=164	=164	=164	=164	=164	=164
0r	1c	1r	4cc	4ee	1ee
.	.	.	4b	4dd	.
.	.	.	4a	4cc	.
.	.	.	4g	4b	.
.	1d	2r	2f	2a	1dd
.	.	2f	[2a	[2dd	.
=165	=165	=165	=165	=165	=165
0r	1e	1g	2a]	2dd]	0r
.	.	.	1g	2cc#	.
.	1d	1a	.	1dd	.
.	.	.	2f#	.	.
=166	=166	=166	=166	=166	=166
1G	1B	2g	1g	2r	1dd
.	.	2d	.	2dd	.
1C	1c	1g	2r	1ee	1cc
.	.	.	2e	.	.
=167	=167	=167	=167	=167	=167
1G	2d	2G	1g	2dd	2b
.	2G	2g	.	2b	2dd
1r	2c	2e	2g	2cc	2ee
.	2c	2c	2g	2cc	2ee
=168	=168	=168	=168	=168	=168
0r	2G	2d	2g	2b	2dd
.	2G	2g	2d	2g	2b
.	4F	1c	2f	4a	[1cc
.	4G	.	.	4b	.
.	4A	.	2f	4cc	.
.	4B	.	.	4dd	.
=169	=169	=169	=169	=169	=169
0r	2c	0r	1e	4ee	2cc]
.	.	.	.	4ff	.
.	2e	.	.	1gg	2b
.	1d	.	1a	.	1dd
.	.	.	.	2ff#	.
=170	=170	=170	=170	=170	=170
1G	2r	1B	1g	2gg	2r
.	2G	.	.	2dd	2dd
1C	2.G	1c	2r	1cc	1ee
.	.	.	2g	.	.
.	4A	.	.	.	.
=171	=171	=171	=171	=171	=171
1G	1B	1d	1g	2b	2dd
.	.	.	.	2dd	2b
1C	2G	1c	[1g	2ee	2cc
.	2G	.	.	2ee	2cc
=172	=172	=172	=172	=172	=172
2G	1B	2d	2g]	2dd	2b
2G	.	2g	2d	2b	2g
2F	1A	[1c	2f	2cc	4a
.	.	.	.	.	4b
2F	.	.	2f	2a	4cc
.	.	.	.	.	4dd
=173	=173	=173	=173	=173	=173
1C	2.c	2c]	1e	1g	4ee
.	.	.	.	.	4ff
.	.	2G	.	.	1gg
.	4B	.	.	.	.
1D	2A	2.d	1a	2r	.
.	2A	.	.	2a	2ff#
.	.	4c	.	.	.
=174	=174	=174	=174	=174	=174
0G	2G	2B	2d	2b	1gg
.	2C	2e	2.g	2.cc	.
.	1G	1d	.	.	2r
.	.	.	4f	8b	.
.	.	.	.	8a	.
.	.	.	2d	2b	[2gg
=175	=175	=175	=175	=175	=175
0C	2r	0c	2.e	2.cc	4gg]
.	.	.	.	.	4ff
.	2G	.	.	.	4ee
.	.	.	4f	4dd	4dd
.	2.G	.	1g	1ee	1cc
.	4A	.	.	.	.
=176	=176	=176	=176	=176	=176
0G	0B	0d	0g	0dd	0b
==	==	==	==	==	==
*-	*-	*-	*-	*-	*-
!!!CDT: 1525/^1526/-1594/2/2
!!!OCY: Italia
!!!AGN: Mass (Parody)
!!!AST: renaissance, vocal
!!!ASW: Motet 1572 (Palestrina)
!!!PWK: Masses, Book 11
!!!RNB: Cadence finals: C,D
!!!YOR: Le Opere Complete, v. 28, p. 268
!!!YOO: Rome, Italy: Fratelli Scalera
!!!END: 1992//
!!!EED: John Miller
!!!YEC: Copyright 2000, John Miller
!!!YEN: United States of America
!!!YEM: Rights to all derivative electronic formats reserved.
!!!YEM: Refer to licensing agreement for further details.
!!!YEM: This file must be accompanied by the licensing agreement.
!!!YEM: A copy of the licensing agreement may be found at http://www.music-cog.ohio-state.edu/HumdrumDatabases/Palestrina/license.txt
!!!EMD: converted to Humdrum by Bret Aarden
